app/dist/common/images/nve.svg

<svg height="18" viewBox="0 0 18 18" width="18" xmlns="http://www.w3.org/2000/svg"><path d="m0 0h18v18h-18z" fill="#0146ad"/><path d="m2 11h.63l.37-2.27.78 2.27h.6l.62-4 .55 4h.7l1.75-4h-.83l-1.13 2.74-.27-2.74h-1.42l-.4 2.46-.74-2.46h-.54zm6.08-4-.76 4h2.33l.08-1h-1.33l.1-.5h1.19l.14-1h-1.23l.1-.5h1.37l.16-1zm2.45 1h5.39l.08-1h-5.35zm5.1 1.5h-5.39l.12-1h5.36zm-5.6 1.5h5.38l.08-1h-5.35l-.12 1z" fill="#fff"/></svg>

<!-- by TradingView --><svg width="18" height="18" viewBox="0 0 18 18" xmlns="http://www.w3.org/2000/svg"><path fill="#0146AD" d="M0 0h18v18H0z"/><path d="M2 11h.63L3 8.73 3.78 11h.6L5 7l.55 4h.7L8 7h-.83L6.04 9.74 5.77 7H4.35l-.4 2.46L3.21 7h-.54L2 11Zm6.08-4-.76 4h2.33l.08-1H8.4l.1-.5h1.19l.14-1H8.6l.1-.5h1.37l.16-1H8.08Zm2.45 1h5.39L16 7h-5.35l-.12 1Zm5.1 1.5h-5.39l.12-1h5.36l-.09 1Zm-5.6 1.5h5.38l.08-1h-5.35l-.12 1Z" fill="#fff"/></svg>
